X: 1
T: String Quartet in D Major opus 76 no 5 mvt 2
C: Franz Joseph Haydn
%%abc-version 2.0
%%abcx-abcm2ps-target-version 5.9.1 (29 Sep 2008)
%%abc-creator hum2abc beta
%%abcx-conversion-date 2021/02/14 14:38:34
%%abc-copyright Copyright (c) 1994, 2000 Center for Computer Assisted Research in the Humanities
%%abc-edited-by Frances Bennion
%%abcx-initial-encoding-date 1997/04/15
%%gracespace 0 6 6
%%humdrum-veritas 1183147071
%%humdrum-veritas-data 3357158986
%%linebreak <none>
%%barnumbers 0
L: 1/8
M: 4/4
N: Derived from op76n5-02.krn
Q: "Largo ma non troppo: cantabile e mesto "Graveyard Largo""
%%staves [1 2 3 4]
V: 1
V: 2
V: 3 clef=alto
V: 4 clef=bass
K: F#
[V:1]z6 C2 [I:setbarnb1]|
[V:2]z6 z2 |
[V:3]z6 z2 |
[V:4]z6 z2 |
[V:1]F2 A2 c2 A3/F/ |
[V:2]C8 |
[V:3]A,8 |
[V:4]F,8- |
[V:1]f2 d>B c2 A3/F/ |
[V:2]D4 C4 |
[V:3]B,4 A,4 |
[V:4]F,8 |
[V:1]E2 F2 B2 A2 |
[V:2]B,2 A,2 G2 F2 |
[V:3]G,2 F,2 E,2 F,3/A,/ |
[V:4]C,8- |
[V:1]G2 >A2 Gz C2 |
[V:2]E2 >F2 Ez3 |
[V:3]C4 z4 |
[V:4]C,4 z4 |
[V:1]F2 A2 c2 A3/F/ |
[V:2]C8 |
[V:3]A,8 |
[V:4]F,,8- |
[V:1]f2 d>B c2 A3/F/ |
[V:2]D4 C2 F2 |
[V:3]B,4 A,4 |
[V:4]F,,8 |
[V:1]d4 DE FG |
[V:2]F4 F4- |
[V:3]G,4 G,4 |
[V:4]B,,4 ^B,,4 |
[V:1]A4 G>F G3/A/ |
[V:2]F4 E4 |
[V:3]F,2 A,2 B,4 |
[V:4]C,8 |
[V:1]F2 z4 z3/c/ |
[V:2]F2 C2 C2 C2 |
[V:3]A,2 A,2 A,2 A,2 |
[V:4]F,2 F,2 F,2 F,2 |
[V:1]G>C B>A Gz2 z/c/ |
[V:2]E2 E2 E2 E2 |
[V:3]B,2 B,2 B,2 B,2 |
[V:4]F,2 F,2 F,2 F,2 |
[V:1]F>C A>G Fz2 z/c/ |
[V:2]F2 C2 C2 C2 |
[V:3]A,2 A,2 A,2 A,2 |
[V:4]F,2 F,2 F,2 F,2 |
[V:1]G>C B>A Gz2 z/c/ |
[V:2]E2 E2 E2 E2 |
[V:3]B,2 B,2 B,2 B,2 |
[V:4]F,2 F,2 F,2 F,2 |
[V:1]A>F c3/A//c// f>c a3/g/ |
[V:2]F4 z4 |
[V:3]A,4 z4 |
[V:4]F,4 z4 |
[V:1]f2 f>g e2 a3/f/ |
[V:2]A8- |
[V:3]D4 ^^C4 |
[V:4]D4 A,4 |
[V:1]d2 d>e ^^c2 A2 |
[V:2]A2 ^^G2 A2 E2 |
[V:3]D4 E2 ^^C2 |
[V:4]B,4 A,2 G,2 |
[V:1]d2 f2 a2 g/f/e/d/ |
[V:2]F8- |
[V:3]A,2 D4 D2 |
[V:4]F,8 |
[V:1]c4 ^B2 z2 |
[V:2]F6 z2 |
[V:3]D6 z2 |
[V:4]G,6 G,,2 |
[V:1]e>G g>f ez2 z/G/ |
[V:2]G8- |
[V:3]z4 C,4 |
[V:4]C,2 E,2 G,2 E,3/C,/ |
[V:1]d>G f>e dz2 z/G/ |
[V:2]G8 |
[V:3]^B,,2 z2 B,,2 ^B,2 |
[V:4]^B,,2 D,2 G,2 D,3/B,,/ |
[V:1]g4 g2 g2 |
[V:2]e>G g>f ez2 z/G/ |
[V:3]C2 E2 G2 E3/C/ |
[V:4]C,2 z2 C,,2 E,,2 |
[V:1]g8- |
[V:2]d>G f>e dz2 z/G/ |
[V:3]^B,2 D2 G2 F3/D/ |
[V:4]G,,2 z2 ^B,,,4 |
[V:1]g8- |
[V:2]e>G g>f e2 d2 |
[V:3]C2 E>D C2 ^B,2 |
[V:4]C,,2 z6 |
[V:1]g4 f4- |
[V:2]c8 |
[V:3]A,>C E>C A4 |
[V:4]z4 D,>F, A,3/F,/ |
[V:1]f4 e4 |
[V:2]^B4 c4 |
[V:3]G,>^B, D>B, G4 |
[V:4]D2 z2 C,>E, G,3/E,/ |
[V:1]d>f a>f d2 d2 |
[V:2]c8- |
[V:3]A8 |
[V:4]F,4 ^^F,4 |
[V:1]d4- de fg |
[V:2]c4 ^B4 |
[V:3]G4 F2 D2 |
[V:4]G,8 |
[V:1]f4 e>c' g3/e/ |
[V:2]c6 z2 |
[V:3]C6 z2 |
[V:4]A,6 z2 |
[V:1]c>c G>E C>E G3/E/ |
[V:2]G,4 C4 |
[V:3]C4 G,4 |
[V:4]E,4 E,,4 |
[V:1]D>F A>F D2 D2 |
[V:2]C8- |
[V:3]A,8- |
[V:4]F,,8 |
[V:1]=E>A c>A E2 E2 |
[V:2]C8- |
[V:3]A,8 |
[V:4]^^F,,8 |
[V:1]E>G c>G e2 d/c/^B/A/ |
[V:2]C8- |
[V:3]G,2 E,2 C,4 |
[V:4]G,,8- |
[V:1]G4- GF ED |
[V:2]C4 ^B,4 |
[V:3]D,2 E,2 F,4 |
[V:4]G,,8 |
[V:1]C2 z6 |
[V:2]C>G, G>F Ez2 z/G,/ |
[V:3]E,G,2 G,2 G,2 G,- |
[V:4]C,,2 E,,2 G,,2 E,,3/C,,/ |
[V:1]z7 z/G/ |
[V:2]D>G, F>E Dz3 |
[V:3]G,G,2 G,2 G,2 G, |
[V:4]^B,,,2 D,,2 G,,2 F,,3/D,,/ |
[V:1]=e>G g>f ez2 z/G/ |
[V:2]G8- |
[V:3]C,2 =E,2 G,2 E,3/C,/ |
[V:4]C,,2 z2 C,,2 =E,,2 |
[V:1]d>G f>=e dz2 z/G/ |
[V:2]G8- |
[V:3]^B,,2 D,2 G,2 F,3/D,/ |
[V:4]G,,2 z2 ^B,,,2 ^B,,2 |
[V:1]=e>G g>e d>G g3/d/ |
[V:2]G8- |
[V:3]C,4 D,4 |
[V:4]C,4 B,,4 |
[V:1]c2 d>=e f2 ^^f2 |
[V:2]G2 F=E D2 C2 |
[V:3]=E,2 F,G, =A,4 |
[V:4]=A,,8 |
[V:1]g2 g2 f=e dc |
[V:2]^B,2 D2 =E4 |
[V:3]G,2 ^B,2 C3 =E |
[V:4]G,,8 |
[V:1]^B6 =B2 |
[V:2]D6 z2 |
[V:3]G6 z2 |
[V:4]G,,6 z2 |
[V:1]=e2 g2 b2 g3/e/ |
[V:2]B8 |
[V:3]G8 |
[V:4]=E8- |
[V:1]=e'2 c'>=a b2 g3/=e/ |
[V:2]c4 B4 |
[V:3]=A4 G4 |
[V:4]E8 |
[V:1]d2 =e2 =a2 g2 |
[V:2]=A2 G2 f2 =e2 |
[V:3]F2 =E2 D2 E3/G/ |
[V:4]B,8- |
[V:1]f2 >g2 fz B,2 |
[V:2]d2 >=e2 dz3 |
[V:3]B4 z4 |
[V:4]B,4 z4 |
[V:1]=E2 =G2 B2 G3/E/ |
[V:2]=E8 |
[V:3]=E,8 |
[V:4]=E,,8 |
[V:1]D2 F2 B2 F3/=D/ |
[V:2]D2 =D6 |
[V:3]D,2 =D,6 |
[V:4]D,,2 =D,,6 |
[V:1]C2 =E2 =A2 E3/=C/ |
[V:2]C2 =C6 |
[V:3]C,2 =C,4 =C2 |
[V:4]C,,2 =C,,4 =C,2 |
[V:1]B,2 =G2 F2 =E2 |
[V:2]B,2 =G,2 =A,2 B,2 |
[V:3]B,2 =D2 =C2 B,2 |
[V:4]B,,4 =A,,2 =G,,2 |
[V:1]=D2 >=E2 D2 D2 |
[V:2]=C4 C2 C2 |
[V:3]=A,4 A,2 A,2 |
[V:4]F,,4 F,,2 F,,2 |
[V:1]=D6 z2 |
[V:2]=C6 z2 |
[V:3]=A,6 =D,2 |
[V:4]F,,6 z2 |
[V:1]BB BB BB BB |
[V:2]=GG GG GG GG |
[V:3]=G,2 B,2 =D2 B,3/G,/ |
[V:4]z8 |
[V:1]=AA AA AA =cc |
[V:2]=GG GG FF =AA |
[V:3]C4 D2 D,2 |
[V:4]z8 |
[V:1]BB BB BB BB |
[V:2]=AA =GG GG GG |
[V:3]=E,2 =G,2 B,2 G,3/F,/ |
[V:4]z8 |
[V:1]=dd dd cc cc |
[V:2]BB BB BB BB |
[V:3]E,4 E4 |
[V:4]z6 C,,2 |
[V:1]cc cc cc cc |
[V:2]=AA AA AA AA |
[V:3]FF FF FF FF |
[V:4]F,,2 =A,,2 C,2 A,,3/F,,/ |
[V:1]cc cc cc cc |
[V:2]GG GG GG GG |
[V:3]CE EE EE EE |
[V:4]E,,2 G,,2 C,2 G,,3/F,,/ |
[V:1]cc cc cc cc |
[V:2]GG GG GG GG |
[V:3]=EE EE EE EE |
[V:4]=E,,2 G,,2 C,2 G,,3/E,,/ |
[V:1]cc cc ^BB BB |
[V:2]FF FF FF FF |
[V:3]=DD DD DD DD |
[V:4]=D,,2 F,,2 =A,,2 F,,3/D,,/ |
[V:1]cc cc cc cc |
[V:2]EE EE EE EE |
[V:3]CC CC CC CC |
[V:4]C,,2 E,,2 G,,2 E,,3/C,,/ |
[V:1]^BB BB BB BB |
[V:2]FF FF FF FF |
[V:3]=DD DD DD DD |
[V:4]=D,,2 F,,2 =A,,2 F,,3/D,,/ |
[V:1]c4 c2 c2 |
[V:2]E4 E2 E2 |
[V:3]C4 G,2 G,2 |
[V:4]C,,4 C,,2 C,,2 |
[V:1]c6 C2 |
[V:2]E6 z2 |
[V:3]G,6 z2 |
[V:4]C,,6 z2 |
[V:1]F2 A2 c2 A3/F/ |
[V:2]C8 |
[V:3]A,8 |
[V:4]F,8- |
[V:1]f2 d>B c2 A3/F/ |
[V:2]D4 C4 |
[V:3]B,4 A,4 |
[V:4]F,8 |
[V:1]E2 F2 B2 A2 |
[V:2]B,2 A,2 G2 F2 |
[V:3]G,2 F,2 E,2 F,3/A,/ |
[V:4]C,8- |
[V:1]G2 >A2 Gz C2 |
[V:2]E2 >F2 Ez3 |
[V:3]C4 z4 |
[V:4]C,4 z4 |
[V:1]F2 A2 c2 A3/F/ |
[V:2]C8 |
[V:3]A,8 |
[V:4]F,,8- |
[V:1]f2 d>B c2 A3/F/ |
[V:2]D4 C2 F2 |
[V:3]B,4 A,4 |
[V:4]F,,8 |
[V:1]d4 DE FG |
[V:2]F4 F4- |
[V:3]G,4 G,4 |
[V:4]B,,4 ^B,,4 |
[V:1]A4 G>F G3/A/ |
[V:2]F4 E4 |
[V:3]F,2 A,2 B,4 |
[V:4]C,8 |
[V:1]F2 zF EF GA |
[V:2]F2 z6 |
[V:3]A,2 z6 |
[V:4]D,2 z6 |
[V:1]B4 A>G A3/B/ |
[V:2]G4 F>E F3/G/ |
[V:3]C8- |
[V:4]E,4 F,4 |
[V:1]G2 z^^F GA Bc |
[V:2]E2 z2 >^^F2 GA |
[V:3]C2 z6 |
[V:4]C,2 z6 |
[V:1]d>c g2 >>g2 a3/b/ |
[V:2]B6 AG |
[V:3]E4 E,4 |
[V:4]z6 C,2 |
[V:1]a>c c'>b az2 z/a/ |
[V:2]Ac2 c2 c2 c- |
[V:3]F,2 z2 F,4 |
[V:4]F,2 A,2 C2 A,3/F,/ |
[V:1]g>c b>a gz2 z/c/ |
[V:2]cc2 c2 c2 c |
[V:3]E,2 z2 E,2 E2 |
[V:4]E,2 G,2 C2 B,3/G,/ |
[V:1]c'4 c'2 c'2 |
[V:2]a>c c'>b az2 z/c/ |
[V:3]F2 A2 c2 A3/F/ |
[V:4]F,2 z2 F,2 A,2 |
[V:1]c'8- |
[V:2]g>c b>a gz2 z/c/ |
[V:3]E2 G2 c2 B3/G/ |
[V:4]C2 z2 E,4 |
[V:1]c'8- |
[V:2]a>c c'>b a2 g2 |
[V:3]F2 A>G F2 E2 |
[V:4]F,2 z6 |
[V:1]c'4 b4- |
[V:2]f8 |
[V:3]D>F A>F d4 |
[V:4]z4 G,>B, D3/B,/ |
[V:1]b4 a4 |
[V:2]e4 f4 |
[V:3]C>E G>E c4 |
[V:4]G2 z2 F,>A, C3/A,/ |
[V:1]g>b d'>b g2 g2 |
[V:2]f8- |
[V:3]d8 |
[V:4]B,4 ^B,4 |
[V:1]g4- ga bc' |
[V:2]f4 e4 |
[V:3]c4 B2 G2 |
[V:4]C8 |
[V:1]b4 a>f' c'3/a/ |
[V:2]f6 z2 |
[V:3]F6 z2 |
[V:4]D6 z2 |
[V:1]f>f c>A F>A c3/A/ |
[V:2]C4 F4 |
[V:3]F4 C4 |
[V:4]A,4 A,,4 |
[V:1]G>B d>B G2 G2 |
[V:2]F8- |
[V:3]D8- |
[V:4]B,,8 |
[V:1]=A>d f>d A2 A2 |
[V:2]F8- |
[V:3]D8 |
[V:4]^B,,8 |
[V:1]A>c f>c a2 g/f/e/d/ |
[V:2]F8- |
[V:3]C2 A,2 F,4 |
[V:4]C,8- |
[V:1]c4- cB AG |
[V:2]F4 E4 |
[V:3]G,2 A,2 B,4 |
[V:4]C,8 |
[V:1]F2 z4 z3/c/ |
[V:2]F2 C2 C2 C2 |
[V:3]A,2 A,2 A,2 A,2 |
[V:4]F,2 F,2 F,2 F,2 |
[V:1]G>C B>A Gz2 z/c/ |
[V:2]E2 E2 E2 E2 |
[V:3]B,2 B,2 B,2 B,2 |
[V:4]F,2 F,2 F,2 F,2 |
[V:1]F>C A>G Fz2 z/c/ |
[V:2]F2 C2 C2 C2 |
[V:3]A,2 A,2 A,2 A,2 |
[V:4]F,2 F,2 F,2 F,2 |
[V:1]G>C B>A Gz2 z/c/ |
[V:2]E2 E2 E2 E2 |
[V:3]B,2 B,2 B,2 B,2 |
[V:4]F,2 F,2 F,2 F,2 |
[V:1]Fz2 z/c/ Gz2 z/c/ |
[V:2]F2 <z2 Ez3 |
[V:3]A,2 <z2 Cz3 |
[V:4]F,,2 <z2 C,z3 |
[V:1]Az2 z/c/ Ez2 z/c/ |
[V:2]F2 <z2 B,z3 |
[V:3]F,2 <z2 G,z3 |
[V:4]F,2 <z2 C,z3 |
[V:1]F2 z2 F2 F2 |
[V:2]A,2 z2 A,2 A,2 |
[V:3]F,2 z2 C,2 C,2 |
[V:4]F,2 z2 F,,2 F,,2 |
[V:1]F8 |]
[V:2]A,8 |]
[V:3]C,8 |]
[V:4]F,,8 |]

